images/verdiep.svg

<svg height="60" viewBox="0 0 60 60" width="60" xmlns="http://www.w3.org/2000/svg"><g fill="none" fill-rule="evenodd"><path d="m0 0h60v60h-60z" fill="#000"/><path d="m25.1015327 19.8166729-2.5695701-.3310654c.5598505-4.315514 3.2442617-7.5122243 7.6100187-8.3214954l.4737196 2.546243c-4.2114392.7805608-5.2629532 4.1620935-5.5141682 6.1063178zm7.8504673 35.3602991c-.4109159.4674392-1.0066542.7374953-1.6266168.7374953h-2.3668038c-.6208598 0-1.2157009-.2700561-1.6266168-.7374953l-3.1392897-3.5878879h11.8977196zm3.6794019-6.8330468c0 .5966355-.484486 1.0811215-1.0820187 1.0811215h-10.815701c-.5966355 0-1.0811215-.484486-1.0811215-1.0811215 0-.5975327.484486-1.0820187 1.0811215-1.0820187h10.815701c.5975327 0 1.0820187.484486 1.0820187 1.0820187zm0-4.3262803c0 .5975327-.484486 1.0820187-1.0820187 1.0820187h-10.815701c-.5966355 0-1.0811215-.484486-1.0811215-1.0820187 0-.5966356.484486-1.0811215 1.0811215-1.0811215h10.815701c.5975327 0 1.0820187.4844859 1.0820187 1.0811215zm8.6516635-25.4507664c0 9.0069533-8.1115514 15.0980187-8.1115514 22.2056075h-4.3092336c.0026916-4.4967477 2.1550654-8.2757383 4.2580934-11.9246355 1.974729-3.4281869 3.8364112-6.6688598 3.8364112-10.280972 0-6.7235888-5.4459813-10.24059813-10.8237757-10.24059813-5.3688224 0-10.8067289 3.51700933-10.8067289 10.24059813 0 3.6121122 1.8625794 6.8527851 3.8373084 10.280972 2.1021308 3.6488972 4.2527103 7.4278878 4.2545047 11.9246355h-4.3065421c0-7.1075888-8.1115514-13.2004486-8.1115514-22.2056075 0-9.39454205 7.5660561-14.5668785 15.1330093-14.5668785 7.5750281 0 15.1500561 5.17861682 15.1500561 14.5668785z" fill="#fff"/></g></svg>

<?xml version="1.0" encoding="UTF-8"?>
<svg width="60px" height="60px" viewBox="0 0 60 60" version="1.1" xmlns="http://www.w3.org/2000/svg" xmlns:xlink="http://www.w3.org/1999/xlink">
    <!-- Generator: Sketch 54.1 (76490) - https://sketchapp.com -->
    <title>verdiep</title>
    <desc>Created with Sketch.</desc>
    <g id="verdiep" stroke="none" stroke-width="1" fill="none" fill-rule="evenodd">
        <rect fill="#000000" x="0" y="0" width="60" height="60"></rect>
        <path d="M25.1015327,19.8166729 L22.5319626,19.4856075 C23.0918131,15.1700935 25.7762243,11.9733832 30.1419813,11.1641121 L30.6157009,13.7103551 C26.4042617,14.4909159 25.3527477,17.8724486 25.1015327,19.8166729 L25.1015327,19.8166729 Z M32.952,55.176972 C32.5410841,55.6444112 31.9453458,55.9144673 31.3253832,55.9144673 L28.9585794,55.9144673 C28.3377196,55.9144673 27.7428785,55.6444112 27.3319626,55.176972 L24.1926729,51.5890841 L36.0903925,51.5890841 L32.952,55.176972 Z M36.6314019,48.3439252 C36.6314019,48.9405607 36.1469159,49.4250467 35.5493832,49.4250467 L24.7336822,49.4250467 C24.1370467,49.4250467 23.6525607,48.9405607 23.6525607,48.3439252 C23.6525607,47.7463925 24.1370467,47.2619065 24.7336822,47.2619065 L35.5493832,47.2619065 C36.1469159,47.2619065 36.6314019,47.7463925 36.6314019,48.3439252 L36.6314019,48.3439252 Z M36.6314019,44.0176449 C36.6314019,44.6151776 36.1469159,45.0996636 35.5493832,45.0996636 L24.7336822,45.0996636 C24.1370467,45.0996636 23.6525607,44.6151776 23.6525607,44.0176449 C23.6525607,43.4210093 24.1370467,42.9365234 24.7336822,42.9365234 L35.5493832,42.9365234 C36.1469159,42.9365234 36.6314019,43.4210093 36.6314019,44.0176449 L36.6314019,44.0176449 Z M45.2830654,18.5668785 C45.2830654,27.5738318 37.171514,33.6648972 37.171514,40.772486 L32.8622804,40.772486 C32.864972,36.2757383 35.0173458,32.4967477 37.1203738,28.8478505 C39.0951028,25.4196636 40.956785,22.1789907 40.956785,18.5668785 C40.956785,11.8432897 35.5108037,8.32628037 30.1330093,8.32628037 C24.7641869,8.32628037 19.3262804,11.8432897 19.3262804,18.5668785 C19.3262804,22.1789907 21.1888598,25.4196636 23.1635888,28.8478505 C25.2657196,32.4967477 27.4162991,36.2757383 27.4180935,40.772486 L23.1115514,40.772486 C23.1115514,33.6648972 15,27.5720374 15,18.5668785 C15,9.17233645 22.5660561,4 30.1330093,4 C37.7080374,4 45.2830654,9.17861682 45.2830654,18.5668785 L45.2830654,18.5668785 Z" fill="#FFFFFF"></path>
    </g>
</svg>
